X: 78
T: Salty River Reel
B: canberra pickers and fiddlers
B: old time tunes update
B: tunes
M:2/4
L:1/16
R: Reel
Q: 1/4=132
K:A
V:1 
EF|:A2AB cBcB|A2af edcB|AAEA cBAc|BGEG BdcB|!
A2AB cBcB|A2af edcB|AAEA cABA|1EAAB A2EF:|2EAAB A3e|:!
f2fe fgaf|(3gfe)c2 ce2c|B2AB cBAc|BcAc (3BcB)A2| !
f2fe fgaf|(3gfe)c2 ce2c|B2AB cABA|1EAAB A3e:|2EAAB A2EF|!
% abcbook-tune_id 67a7d9ec82387d6d9b155082
% abcbook-tune_composer_id 
% abcbook-link-0 https://www.youtube.com/watch?v=PF4ELW_vzcQ
% abcbook-link-title-0 Salty River Reel
% abcbook-boost 0
% abcbook-difficulty 0
% abcbook-tags old time tunes
% abcbook-tablature 
% abcbook-transpose 
% abcbook-tuning AEAE
% abcbook-lastupdated 1739234364461
% abcbook-src-url 
% abcbook-soundfonts 
% abcbook-repeats 1


